X: 59
T:Debka Hachamor
C: Emanuel Zamir 1954
O:Israel
I:choreographer V.Cohen
F: http://www.youtube.com/watch?v=FMkfIL8zofM
L:1/4
M:4/4
K:F
Q:1/4=240 
  z3 a     |"Dm"abag      | "Dm"agfg  |"Gm"g2fg        | "Gm"ag/f/g2 |\
  "Dm"f3 e | "Gm"g2 e2    |"Dm"f2 e2  |"Dm"d2 za       |
  "Dm"abag | "Dm"agfg     |"Gm"g2fg   | "Gm"ag/f/g2    |\
  "Dm"f3 e | "Gm"g2 e2    |"Dm"f2 e2  |"Dm"d3 z        |
|:"Dm"cddd | "Gm"d e/f/ gg|"Dm"de ff  | "Dm"e d/c/ d2  :|\
|:"Dm"ga aa| "Dm"ga aa    | "Dm"ga aa | "Dm"ga a2      :|
|:"Gm"g2 g2| "Gm"ga gf    | "Gm"g2 g2 | "Gm"gagf       | "Dm"g f/e/d2|z4 :|



